X: 457
T: I Met Her in the Garden
N:"Moderate" "collected by J.O'Neill"
N:Irish title: do casa.d me lai.te annsa gara.d
B:O'Neill's 457
Z:Transcribed by henrik.norbeck@mailbox.swipnet.se
M:C
L:1/8
K:G
G>A | B>DD>E G>ABG | A>GED G3 G | c2 c>c B<ddB | A>BAG E3 E |
c>dec B<ddB | A>BAG E2 G>A | B>DD>E G>ABG | A2 G2 G2 ||


